images/icons/robot.svg

<?xml version="1.0" encoding="UTF-8" standalone="no"?>
<svg width="74px" height="80px" viewBox="0 0 74 80" version="1.1" xmlns="http://www.w3.org/2000/svg" xmlns:xlink="http://www.w3.org/1999/xlink" xmlns:sketch="http://www.bohemiancoding.com/sketch/ns">
    <!-- Generator: Sketch 3.4 (15575) - http://www.bohemiancoding.com/sketch -->
    <title>Robot</title>
    <desc>Created with Sketch.</desc>
    <defs></defs>
    <g id="Website" stroke="none" stroke-width="1" fill="none" fill-rule="evenodd" sketch:type="MSPage">
        <g id="Desktop-HD" sketch:type="MSArtboardGroup" transform="translate(-363.000000, -1277.000000)" fill="#000000">
            <g id="Services" sketch:type="MSLayerGroup" transform="translate(100.000000, 928.000000)">
                <g id="Robot-+-Don’t-let-our-profes-+-AUTOMATION" transform="translate(0.000000, 349.000000)" sketch:type="MSShapeGroup">
                    <g id="Robot" transform="translate(263.000000, 0.000000)">
                        <path d="M54.301651,64.1137778 C54.301651,64.7431111 53.7527889,65.2524444 53.0763052,65.2524444 L43.3020973,65.2524444 C42.6256136,65.2524444 42.0767515,64.7431111 42.0767515,64.1137778 L42.0767515,58.7466667 C42.0767515,58.1191111 42.6256136,57.6097778 43.3020973,57.6097778 L53.0763052,57.6097778 C53.7527889,57.6097778 54.301651,58.1191111 54.301651,58.7466667 L54.301651,64.1137778 L54.301651,64.1137778 Z" id="Shape"></path>
                        <path d="M55.1352075,76.5751111 L53.719768,66.8213333 L42.7211066,66.8213333 L41.3083445,76.5751111 L38.64971,76.5751111 L38.64971,80 L57.7286925,80 L57.7286925,76.5751111 L55.1352075,76.5751111 Z" id="Shape"></path>
                        <path d="M31.8250781,64.1137778 C31.8250781,64.7431111 31.2771084,65.2524444 30.5979473,65.2524444 L20.8264168,65.2524444 C20.151718,65.2524444 19.599286,64.7431111 19.599286,64.1137778 L19.599286,58.7466667 C19.599286,58.1191111 20.1526104,57.6097778 20.8264168,57.6097778 L30.5970549,57.6097778 C31.276216,57.6097778 31.8241856,58.1191111 31.8241856,58.7466667 L31.8241856,64.1137778 L31.8250781,64.1137778 Z" id="Shape"></path>
                        <path d="M32.6256136,76.5751111 L31.2137439,66.8213333 L20.2132976,66.8213333 L18.7978581,76.5751111 L16.1749219,76.5751111 L16.1749219,80 L35.254797,80 L35.254797,76.5751111 L32.6256136,76.5751111 Z" id="Shape"></path>
                        <path d="M51.7108434,56.1048889 L51.7108434,51.9733333 L57.233378,51.9733333 C57.8652387,51.9733333 58.37751,51.4648889 58.37751,50.8337778 L58.37751,44.1377778 C58.37751,43.5075556 57.8652387,42.9991111 57.233378,42.9991111 L16.6506024,42.9991111 C16.0169567,42.9991111 15.5073628,43.5075556 15.5073628,44.1377778 L15.5073628,50.8337778 C15.5073628,51.4648889 16.0169567,51.9733333 16.6506024,51.9733333 L22.1909862,51.9733333 L22.1909862,56.1048889 L29.2360553,56.1048889 L29.2360553,51.9733333 L44.6666667,51.9733333 L44.6666667,56.1048889 L51.7108434,56.1048889 L51.7108434,56.1048889 Z" id="Shape"></path>
                        <path d="M48.865685,0 L25.2012494,0 C24.4605087,0 23.859884,0.599111111 23.859884,1.33422222 L23.859884,15.0355556 C23.859884,15.7742222 24.4605087,16.3688889 25.2012494,16.3688889 L48.865685,16.3688889 C49.6055332,16.3688889 50.206158,15.7742222 50.206158,15.0355556 L50.206158,1.33511111 C50.206158,0.599111111 49.6055332,0 48.865685,0 L48.865685,0 Z M30.7309237,10.1031111 C28.8603302,10.1031111 27.3449353,8.592 27.3449353,6.73155556 C27.3449353,4.86844444 28.8612227,3.35822222 30.7309237,3.35822222 C32.5997323,3.35822222 34.1169121,4.86844444 34.1169121,6.73155556 C34.1169121,8.59288889 32.5988398,10.1031111 30.7309237,10.1031111 L30.7309237,10.1031111 Z M43.3369032,10.1031111 C41.4663097,10.1031111 39.9482374,8.592 39.9482374,6.73155556 C39.9482374,4.86844444 41.4663097,3.35822222 43.3369032,3.35822222 C45.2066042,3.35822222 46.7219991,4.86844444 46.7219991,6.73155556 C46.7219991,8.59288889 45.2057117,10.1031111 43.3369032,10.1031111 L43.3369032,10.1031111 Z" id="Shape"></path>
                        <path d="M22.9888443,12.7964444 L22.0999554,12.7964444 C21.4689871,12.7964444 20.9585007,12.2871111 20.9585007,11.6586667 L20.9585007,4.71288889 C20.9585007,4.08266667 21.4698795,3.57333333 22.0999554,3.57333333 L22.9888443,3.57333333 L22.9888443,12.7964444 L22.9888443,12.7964444 Z" id="Shape"></path>
                        <path d="M20.2811245,11.2826667 L19.6555109,11.2826667 C19.0245426,11.2826667 18.5122713,10.7715556 18.5122713,10.144 L18.5122713,6.22755556 C18.5122713,5.59911111 19.0254351,5.08977778 19.6555109,5.08977778 L20.2811245,5.08977778 L20.2811245,11.2826667 L20.2811245,11.2826667 Z" id="Shape"></path>
                        <path d="M50.8924587,12.7964444 L51.7813476,12.7964444 C52.4132084,12.7964444 52.9236948,12.2871111 52.9236948,11.6586667 L52.9236948,4.71288889 C52.9236948,4.08266667 52.4132084,3.57333333 51.7813476,3.57333333 L50.8924587,3.57333333 L50.8924587,12.7964444 L50.8924587,12.7964444 Z" id="Shape"></path>
                        <path d="M53.6028559,11.2826667 L54.2266845,11.2826667 C54.8567604,11.2826667 55.3717091,10.7715556 55.3717091,10.144 L55.3717091,6.22755556 C55.3717091,5.59911111 54.8567604,5.08977778 54.2266845,5.08977778 L53.6028559,5.08977778 L53.6028559,11.2826667 L53.6028559,11.2826667 Z" id="Shape"></path>
                        <path d="M69.8545292,44.9555556 L69.8545292,32.1822222 C69.8545292,26.2204444 64.9808121,21.368 58.994199,21.368 L58.37751,21.368 L58.37751,20.6773333 C58.37751,20.0488889 57.8652387,19.5386667 57.233378,19.5386667 L16.6506024,19.5386667 C16.0169567,19.5386667 15.5073628,20.0497778 15.5073628,20.6773333 L15.5073628,21.368 L14.8888889,21.368 C8.90316823,21.368 4.0303436,26.2204444 4.0303436,32.1822222 L4.0303436,44.9555556 C1.71352075,45.9351111 0.0803212851,48.2231111 0.0803212851,50.8853333 L2.14725569,50.8853333 C2.14725569,48.464 4.11958947,46.5031111 6.54886212,46.5031111 C8.97545739,46.5031111 10.9477912,48.464 10.9477912,50.8853333 L13.0129407,50.8853333 C13.0129407,48.2648889 11.4323963,46.0124444 9.17536814,45.008 L9.17536814,32.1822222 C9.17536814,29.0408889 11.7322624,26.4897778 14.8879964,26.4897778 L15.5064703,26.4897778 L15.5064703,39.5848889 C15.5064703,40.2151111 16.0160643,40.7217778 16.64971,40.7217778 L57.233378,40.7217778 C57.8652387,40.7217778 58.37751,40.2151111 58.37751,39.5848889 L58.37751,26.4897778 L58.994199,26.4897778 C62.1499331,26.4897778 64.7086122,29.0408889 64.7086122,32.1822222 L64.7086122,45.008 C62.4506917,46.0124444 60.8692548,48.2648889 60.8692548,50.8853333 L62.9326194,50.8853333 C62.9326194,48.464 64.9049531,46.5031111 67.3360107,46.5031111 C69.7652834,46.5031111 71.7376171,48.464 71.7376171,50.8853333 L73.8027666,50.8853333 C73.8036591,48.2231111 72.1713521,45.9351111 69.8545292,44.9555556 L69.8545292,44.9555556 Z M30.5774208,36.5262222 L28.2855868,36.5262222 L28.2855868,28.7946667 L30.5774208,28.7946667 L30.5774208,36.5262222 L30.5774208,36.5262222 Z M34.334672,36.5262222 L32.0392682,36.5262222 L32.0392682,28.7946667 L34.334672,28.7946667 L34.334672,36.5262222 L34.334672,36.5262222 Z M38.0883534,36.5262222 L35.795627,36.5262222 L35.795627,28.7946667 L38.0883534,28.7946667 L38.0883534,36.5262222 L38.0883534,36.5262222 Z M41.8411423,36.5262222 L39.5493083,36.5262222 L39.5493083,28.7946667 L41.8411423,28.7946667 L41.8411423,36.5262222 L41.8411423,36.5262222 Z M45.599286,36.5262222 L43.3056671,36.5262222 L43.3056671,28.7946667 L45.599286,28.7946667 L45.599286,36.5262222 L45.599286,36.5262222 Z" id="Shape"></path>
                    </g>
                </g>
            </g>
        </g>
    </g>
</svg>

<svg width="74" height="80" viewBox="0 0 74 80" xmlns="http://www.w3.org/2000/svg"><title>Robot</title><g fill="#000" fill-rule="evenodd"><path d="M54.302 64.114c0 .63-.55 1.138-1.226 1.138h-9.774c-.676 0-1.225-.51-1.225-1.138v-5.367c0-.628.55-1.137 1.225-1.137h9.774c.677 0 1.226.51 1.226 1.137v5.367zM55.135 76.575L53.72 66.82h-11l-1.412 9.755H38.65V80h19.08v-3.425h-2.595zM31.825 64.114c0 .63-.548 1.138-1.227 1.138h-9.772c-.674 0-1.227-.51-1.227-1.138v-5.367c0-.628.553-1.137 1.226-1.137h9.77c.68 0 1.228.51 1.228 1.137v5.367zM32.626 76.575l-1.412-9.754h-11l-1.416 9.755h-2.623V80h19.08v-3.425h-2.63zM51.71 56.105v-4.132h5.523c.632 0 1.145-.508 1.145-1.14V44.14c0-.63-.513-1.14-1.145-1.14H16.65c-.633 0-1.143.51-1.143 1.14v6.696c0 .63.51 1.14 1.144 1.14h5.54v4.13h7.046v-4.13h15.43v4.13h7.045zM48.866 0H25.2c-.74 0-1.34.6-1.34 1.334v13.702c0 .738.6 1.333 1.34 1.333h23.666c.74 0 1.34-.596 1.34-1.334v-13.7c0-.737-.6-1.336-1.34-1.336zM30.73 10.103c-1.87 0-3.385-1.51-3.385-3.37 0-1.865 1.516-3.375 3.386-3.375s3.387 1.51 3.387 3.374c0 1.86-1.518 3.37-3.386 3.37zm12.607 0c-1.87 0-3.39-1.51-3.39-3.37 0-1.865 1.52-3.375 3.39-3.375s3.385 1.51 3.385 3.374c0 1.86-1.516 3.37-3.385 3.37zM22.99 12.796h-.89c-.63 0-1.14-.51-1.14-1.137V4.712c0-.63.51-1.14 1.14-1.14h.89v9.223zM20.28 11.283h-.624c-.63 0-1.144-.51-1.144-1.14V6.23c0-.63.513-1.138 1.144-1.138h.625v6.193zM50.892 12.796h.89c.63 0 1.142-.51 1.142-1.137V4.712c0-.63-.51-1.14-1.143-1.14h-.888v9.223zM53.603 11.283h.624c.63 0 1.145-.51 1.145-1.14V6.23c0-.63-.515-1.138-1.145-1.138h-.624v6.193z"/><path d="M69.855 44.956V32.182c0-5.962-4.874-10.814-10.86-10.814h-.617v-.69c0-.63-.513-1.14-1.145-1.14H16.65c-.633 0-1.143.512-1.143 1.14v.69h-.618c-5.987 0-10.86 4.852-10.86 10.814v12.774c-2.316.98-3.95 3.267-3.95 5.93h2.067c0-2.422 1.973-4.383 4.402-4.383 2.425 0 4.398 1.96 4.398 4.382h2.065c0-2.62-1.58-4.873-3.838-5.877V32.182c0-3.14 2.557-5.692 5.713-5.692h.618v13.095c0 .63.51 1.137 1.144 1.137h40.583c.632 0 1.145-.507 1.145-1.137V26.49h.616c3.156 0 5.715 2.55 5.715 5.692v12.826c-2.26 1.004-3.84 3.257-3.84 5.877h2.063c0-2.42 1.972-4.382 4.403-4.382 2.43 0 4.402 1.96 4.402 4.382h2.065c0-2.662-1.632-4.95-3.948-5.93zm-39.278-8.43h-2.29v-7.73h2.29v7.73zm3.758 0H32.04v-7.73h2.295v7.73zm3.753 0h-2.292v-7.73h2.292v7.73zm3.753 0h-2.29v-7.73h2.29v7.73zm3.76 0h-2.294v-7.73H45.6v7.73z"/></g></svg>
